X:1
T:Denmark hall
M:2/4
L:1/8
R:Country Dance
B:William Randall - Twenty Four Country Dances for the Year 1771 (No. 17)
N:Randall is advertised as "Successor to the late Mr. Walsh, in Catharine Street in the Strand"
Z:AK/Fiddler's Companion
K:A
e/d/|c A2c|B E2 d|cedc|B E2 e/d/|
c a2 g|f/e/^d/c/ Ba|gfe^d|e2 E:|
|:e/=d/|c a2 c/e/|d b2 B/d/|cedc|B/A/G/F/ E2|
c A2 E/=G/|F d2 c|{c}BA c/B/A/G/|A2 A,:|]

